X:1
T:Step by Step
T:Step by Step
T:Matthew Lindsay McPhail
T:Kate Ulmer, 1922
T:Public Domain Courtesy of the Cyber Hymnal™
C:Matthew Lindsay McPhail
Z:Public Domain
Z:Courtesy of the Cyber Hymnal™
%%score ( 1 2 ) ( 3 4 )
L:1/8
Q:1/4=105
M:4/4
K:Ab
V:1 treble 
V:2 treble 
V:3 bass 
V:4 bass 
V:1
 [Ec]3 [DB] [DB][CA][CE][CA] | [EG]4 [DF]4 | [Fd]3 [Ec] [Ec][DB][=DF][DG] | E8 | %4
w: 1.~When the sha- dows thick- ly|ga- ther,|Cloud- ing all thy on- ward|way,|
w: 2.~Should the com- ing days bring|bur- dens,|Or be fraught with grief or|care,|
w: 3.~Dai- ly strength He ev- er|giv- eth,|For each day rich grace be-|stows;|
w: 4.~Then why should we shrink or|fal- ter|When the on- ward path looks|dim,|
 [Ec]3 [DB] [DB][CA][Ec][_Ge] | [_Ge]4 [Fd]4 | [Ec]3 E [=DF][DA][_DG][DB] | [CA]6 z2 || %8
w: Think not what shall be to-|mor- row;|Seek God’s help just for to-|day.|
w: Trust Him in the hour of|tri- al,|He will make thee strong to|bear.|
w: And each mor- row, as it|dawn- eth,|Still His lov- ing- kind- ness|shows.|
w: Know- ing light will ne- ver|fail us|While we walk by faith with|Him?|
"^Refrain" [Ec]3 [CA] [Fd][Ec][DB][EA] | [EG]4 F4 | [=DB]3 [DB] [Dc][DB][DA][DF] | E8 | %12
w: ||||
w: Step by step He leads me|on- ward,|Step by step the way re-|veals;|
w: ||||
w: ||||
 [Ec]3 [DB] [DB][CA][Ec][_Ge] | [_Ge]4 [Fd]4 | [Ec]3 E [=DF][DA][_DG][DB] | [CA]6 z2 |] %16
w: ||||
w: But what in the fu- ture|li- eth,|In His mer- cy He con-|ceals.|
w: ||||
w: ||||
V:2
 x8 | x8 | x8 | (E2 C2 D4) | x8 | x8 | x3 E x4 | x8 || x8 | x4 (D2 E2) | x8 | (EECC D4) | x8 | x8 | %14
 x3 E x4 | x8 |] %16
V:3
 [A,,A,]3 [A,,E,] [A,,E,][A,,E,][A,,A,][A,,A,] | [D,A,]4 [D,A,]4 | %2
w: ~ ~ ~ ~ ~ ~|~ ~|
 [B,,B,]3 [C,=A,] [D,A,][E,B,][B,,B,][B,,B,] | (G,2 A,2 B,4) | %4
w: ~ ~ ~ ~ ~ ~|~ * *|
 [A,,A,]3 [A,,E,] [A,,E,][A,,E,][A,,A,][C,A,] | [C,A,]4 [D,A,]4 | %6
w: ~ ~ ~ ~ ~ ~|~ ~|
 [E,A,]3 [C,A,] [C,A,][C,A,][E,B,][E,G,] | [A,,A,]6 z2 || %8
w: ~ ~ ~ ~ ~ ~|~|
 [A,,A,]3 [A,,A,] [A,,A,][A,,A,][B,,G,][C,A,] | %9
w: ~ ~ ~ ~ ~ ~|
 [D,A,][D,A,][D,A,][D,A,] [D,A,][D,A,][C,=A,][C,A,] | [B,,B,]4 z [B,,B,][B,,B,][B,,A,] | %11
w: on- ward, ev- er on- ward, step by|step, the way re-|
 [E,G,][E,G,][E,A,][E,A,] [E,B,]4 | [A,,A,]3 [A,,E,] [A,,E,][A,,E,][A,,A,][C,A,] | %13
w: veals, the way re- veals.||
 [C,A,]4 [D,A,]4 | [E,A,]3 [C,A,] [B,,A,][B,,A,][E,B,][E,G,] | [A,,A,]6 z2 |] %16
w: |||
V:4
 x8 | x8 | x8 | E,8 | x8 | x8 | x8 | x8 || x8 | x8 | x8 | x8 | x8 | x8 | x8 | x8 |] %16

